X: 10299
T: Dolar Durba
R: polka
M: 2/4
K: Dmixolydian
|:D/E/F/G/ Ad|cc BG|c2 BG|cG A2|
D/E/F/G/ Ad|cc BG|cG A/B/A/G/|FD D2:|
|:d/e/f Be/f/|gd/e/ fd|df Be/f/|ge f2|
d/e/f Be/f/|gd/e/ fd|dB A/B/A/G/|FD D2:|

